src/static/logos/redspread.svg

<?xml version="1.0" encoding="UTF-8" standalone="no"?>
<svg width="512px" height="187px" viewBox="0 0 512 187" version="1.1" xmlns="http://www.w3.org/2000/svg" xmlns:xlink="http://www.w3.org/1999/xlink" preserveAspectRatio="xMidYMid">
    <g>
        <path d="M477.090909,-1.42108547e-14 L34.9090909,-1.42108547e-14 C15.6509091,-1.42108547e-14 0,15.6509091 0,34.9090909 L0,128 C0,144.290909 11.1127273,157.905455 26.1818182,161.803636 C26.7054545,161.92 27.8690909,162.210909 27.9854545,162.210909 C101.527273,177.92 177.803636,186.181818 256,186.181818 C334.196364,186.181818 410.472727,177.92 484.014545,162.210909 C484.130909,162.210909 485.294545,161.92 485.818182,161.803636 C500.887273,157.905455 512,144.232727 512,128 L512,34.9090909 C512,15.6509091 496.349091,-1.42108547e-14 477.090909,-1.42108547e-14 Z M93.0327273,122.007273 C92.16,122.530909 91.1127273,122.763636 90.1818182,122.763636 C87.5636364,122.763636 86.3418182,120.901818 84.9454545,118.458182 L70.4581818,93.0327273 L57.2509091,93.0327273 L57.2509091,115.549091 C57.2509091,118.167273 57.1927273,118.981818 56.4945455,120.32 C55.7381818,121.716364 54.1090909,122.705455 52.0145455,122.705455 C49.92,122.705455 48.2909091,121.716364 47.5345455,120.32 C46.7781818,118.923636 46.7781818,118.109091 46.7781818,115.549091 L46.7781818,59.1709091 C46.7781818,57.6 46.7781818,55.7381818 48.2909091,54.2254545 C49.8036364,52.7127273 51.6654545,52.7127273 53.2363636,52.7127273 L73.7745455,52.7127273 C86.9818182,52.7127273 95.36,61.2072727 95.36,73.0181818 C95.36,82.9672727 89.3672727,89.3090909 81.5709091,91.52 L94.0218182,113.28 C95.2436364,115.432727 95.6509091,116.305455 95.7090909,117.643636 C95.6509091,119.389091 94.8363636,120.96 93.0327273,122.007273 Z M84.7127273,73.1927273 C84.7127273,66.3272727 79.9418182,62.1381818 72.9018182,62.1381818 L57.2509091,62.1381818 L57.2509091,84.0145455 L72.9018182,84.0145455 C79.9418182,84.0145455 84.7127273,80 84.7127273,73.1927273 L84.7127273,73.1927273 Z M141.090909,99.2 C139.810909,100.48 138.181818,100.48 136.669091,100.48 L110.312727,100.48 C110.312727,108.916364 114.734545,114.443636 122.996364,114.443636 C126.487273,114.443636 129.861818,113.454545 132.538182,111.301818 C134.050909,110.08 135.330909,109.498182 136.610909,109.498182 C138.589091,109.498182 140.741818,111.476364 140.741818,113.745455 C140.741818,116.014545 138.181818,118.167273 135.738182,119.738182 C132.596364,121.774545 128.116364,122.938182 122.763636,122.938182 C110.370909,122.938182 100.421818,116.421818 100.421818,97.5709091 C100.421818,81.2218182 108.8,72.2036364 121.425455,72.2036364 C134.4,72.2036364 142.08,81.6290909 142.370909,94.72 C142.487273,96.1745455 142.312727,97.9781818 141.090909,99.2 L141.090909,99.2 Z M121.483636,80.5236364 C116.712727,80.5236364 113.28,83.0836364 111.592727,86.8072727 C110.603636,88.96 110.429091,90.5309091 110.312727,93.5563636 L132.596364,93.5563636 C132.421818,90.5309091 132.189091,88.96 131.2,86.8072727 C129.570909,83.0836364 126.196364,80.5236364 121.483636,80.5236364 L121.483636,80.5236364 Z M189.905455,115.898182 C189.905455,118.632727 189.730909,119.505455 189.032727,120.610909 C188.218182,121.949091 186.589091,122.705455 184.901818,122.705455 C183.272727,122.705455 181.76,122.065455 180.829091,120.727273 C180.305455,119.970909 180.072727,119.272727 179.956364,117.236364 C176.290909,121.6 172.16,122.88 166.981818,122.88 C161.978182,122.88 157.614545,121.192727 154.88,118.458182 C150.109091,113.570909 149.410909,105.658182 149.410909,97.4545455 C149.410909,89.3672727 150.109091,81.3963636 154.88,76.5090909 C157.614545,73.7745455 161.92,72.0872727 166.923636,72.0872727 C172.218182,72.0872727 176.290909,73.3672727 179.898182,77.6727273 L179.898182,59.0545455 C179.898182,56.6690909 180.072727,55.7963636 180.654545,54.6327273 C181.352727,53.2945455 182.749091,52.3054545 184.901818,52.3054545 C187.054545,52.3054545 188.450909,53.3527273 189.149091,54.6327273 C189.730909,55.7963636 189.905455,56.6690909 189.905455,59.0545455 L189.905455,115.898182 Z M169.658182,81.2218182 C160.64,81.2218182 159.418182,88.7854545 159.418182,97.5709091 C159.418182,106.356364 160.698182,113.92 169.658182,113.92 C178.676364,113.92 179.956364,106.356364 179.956364,97.5709091 C179.956364,88.7854545 178.734545,81.2218182 169.658182,81.2218182 Z M217.890909,122.938182 C210.152727,122.938182 205.090909,121.483636 200.610909,118.458182 C199.04,117.410909 197.876364,116.014545 197.876364,114.327273 C197.876364,113.047273 198.458182,111.709091 199.505455,110.894545 C200.261818,110.196364 201.192727,109.847273 202.24,109.847273 C203.287273,109.847273 204.450909,110.312727 205.963636,111.243636 C209.454545,113.512727 212.887273,114.56 217.949091,114.56 C224.290909,114.56 228.829091,112.290909 228.829091,107.578182 C228.829091,104.261818 226.909091,102.167273 222.138182,101.701818 L214.167273,100.945455 C204.916364,100.130909 199.505455,95.9418182 199.505455,87.3309091 C199.505455,77.6145455 207.883636,72.1454545 218.24,72.1454545 C223.592727,72.1454545 227.723636,73.0763636 231.563636,74.88 C233.250909,75.6363636 234.181818,76.2763636 234.763636,76.9745455 C235.52,77.8472727 235.694545,78.6036364 235.694545,79.7090909 C235.694545,80.6981818 235.170909,81.92 234.472727,82.6181818 C233.658182,83.4327273 232.727273,83.8981818 231.563636,83.8981818 C230.632727,83.8981818 229.643636,83.4909091 228.363636,82.8509091 C225.221818,81.3381818 221.847273,80.2327273 218.065455,80.2327273 C212.130909,80.2327273 209.163636,82.9672727 209.163636,86.7490909 C209.163636,90.4145455 211.432727,92.0436364 216.029091,92.3927273 L223.825455,93.1490909 C233.076364,94.0218182 238.545455,98.2690909 238.545455,107.112727 C238.545455,117.585455 229.76,122.938182 217.890909,122.938182 L217.890909,122.938182 Z M281.949091,118.516364 C279.214545,121.250909 274.909091,122.938182 269.905455,122.938182 C264.610909,122.938182 260.538182,121.6 256.930909,117.294545 L256.930909,135.912727 C256.930909,138.298182 256.756364,139.170909 256.174545,140.334545 C255.476364,141.672727 254.08,142.661818 251.927273,142.661818 C249.774545,142.661818 248.378182,141.614545 247.68,140.334545 C247.098182,139.170909 246.923636,138.298182 246.923636,135.912727 L246.923636,79.1854545 C246.923636,76.4509091 247.098182,75.5781818 247.796364,74.4727273 C248.610909,73.1345455 250.24,72.3781818 251.927273,72.3781818 C253.556364,72.3781818 255.069091,73.0181818 256,74.3563636 C256.523636,75.1127273 256.756364,75.8690909 256.872727,77.8472727 C260.538182,73.4836364 264.610909,72.2036364 269.847273,72.2036364 C274.850909,72.2036364 279.214545,73.8909091 281.949091,76.6254545 C286.72,81.5127273 287.418182,89.4254545 287.418182,97.6290909 C287.418182,105.658182 286.72,113.629091 281.949091,118.516364 Z M267.170909,81.1636364 C258.152727,81.1636364 256.872727,88.7272727 256.872727,97.5127273 C256.872727,106.298182 258.152727,113.92 267.170909,113.92 C276.189091,113.92 277.410909,106.298182 277.410909,97.5127273 C277.410909,88.7272727 276.130909,81.1636364 267.170909,81.1636364 Z M326.458182,83.9563636 C325.410909,83.9563636 324.305455,83.6072727 322.618182,82.6181818 C320.930909,81.6872727 319.185455,81.1636364 317.265455,81.1636364 C311.621818,81.1636364 307.141818,85.3527273 307.141818,92.2763636 L307.141818,115.956364 C307.141818,118.341818 306.967273,119.214545 306.385455,120.378182 C305.687273,121.716364 304.290909,122.705455 302.138182,122.705455 C299.985455,122.705455 298.589091,121.658182 297.890909,120.378182 C297.309091,119.214545 297.134545,118.341818 297.134545,115.956364 L297.134545,79.2436364 C297.134545,76.5090909 297.309091,75.6363636 298.007273,74.5309091 C298.821818,73.1927273 300.450909,72.4363636 302.138182,72.4363636 C303.767273,72.4363636 305.28,73.0763636 306.210909,74.4145455 C306.734545,75.1709091 306.967273,75.9272727 307.083636,78.0218182 C309.876364,74.5309091 314.530909,72.2618182 319.709091,72.2618182 C323.374545,72.2618182 325.992727,72.96 328.436364,74.5309091 C330.123636,75.6363636 331.403636,77.1490909 331.403636,79.0109091 C331.403636,80.4072727 330.821818,81.7454545 329.949091,82.6181818 C329.018182,83.4327273 327.738182,83.9563636 326.458182,83.9563636 L326.458182,83.9563636 Z M371.84,99.2 C370.56,100.48 368.930909,100.48 367.418182,100.48 L341.061818,100.48 C341.061818,108.916364 345.483636,114.443636 353.745455,114.443636 C357.236364,114.443636 360.610909,113.454545 363.287273,111.301818 C364.8,110.08 366.08,109.498182 367.36,109.498182 C369.338182,109.498182 371.490909,111.476364 371.490909,113.745455 C371.490909,116.014545 368.930909,118.167273 366.487273,119.738182 C363.345455,121.774545 358.865455,122.938182 353.512727,122.938182 C341.12,122.938182 331.170909,116.421818 331.170909,97.5709091 C331.170909,81.2218182 339.549091,72.2036364 352.174545,72.2036364 C365.149091,72.2036364 372.829091,81.6290909 373.12,94.72 C373.294545,96.1745455 373.061818,97.9781818 371.84,99.2 L371.84,99.2 Z M352.232727,80.5236364 C347.461818,80.5236364 344.029091,83.0836364 342.341818,86.8072727 C341.352727,88.96 341.178182,90.5309091 341.061818,93.5563636 L363.345455,93.5563636 C363.170909,90.5309091 362.938182,88.96 361.949091,86.8072727 C360.378182,83.0836364 356.945455,80.5236364 352.232727,80.5236364 L352.232727,80.5236364 Z M418.967273,115.956364 C418.967273,118.4 418.850909,119.330909 418.210909,120.436364 C417.454545,121.832727 415.883636,122.705455 413.963636,122.705455 C412.334545,122.705455 411.112727,122.123636 410.356364,121.309091 C409.774545,120.610909 409.309091,119.854545 409.250909,117.76 C405.352727,121.6 402.036364,122.88 395.985455,122.88 C389.76,122.88 385.629091,121.483636 382.661818,118.4 C380.101818,115.781818 378.705455,112 378.705455,107.810909 C378.705455,99.4909091 384.64,93.44 395.869091,93.44 L409.018182,93.44 L409.018182,90.3563636 C409.018182,83.84 405.934545,80.6981818 398.661818,80.6981818 C394.705455,80.6981818 392.087273,81.8036364 389.178182,84.0145455 C387.898182,85.0036364 386.501818,85.3527273 385.570909,85.3527273 C384.523636,85.3527273 383.418182,84.8872727 382.661818,84.0145455 C381.847273,83.0836364 381.498182,82.2690909 381.498182,80.9309091 C381.498182,78.6618182 383.592727,76.6836364 386.152727,75.2290909 C389.643636,73.2509091 393.658182,72.2618182 398.778182,72.2618182 C412.043636,72.2618182 419.083636,78.08 419.083636,89.3090909 L419.083636,115.956364 L418.967273,115.956364 Z M388.363636,107.636364 C388.363636,112.116364 391.389091,114.618182 397.672727,114.618182 C401.221818,114.618182 404.189091,114.210909 406.690909,111.767273 C408.261818,110.312727 408.901818,108.043636 408.901818,104.378182 L408.901818,100.48 L397.149091,100.48 C391.330909,100.48 388.363636,103.04 388.363636,107.636364 L388.363636,107.636364 Z M468.654545,115.898182 C468.654545,118.632727 468.48,119.505455 467.781818,120.610909 C466.967273,121.949091 465.338182,122.705455 463.650909,122.705455 C462.021818,122.705455 460.509091,122.065455 459.578182,120.727273 C459.054545,119.970909 458.821818,119.272727 458.705455,117.236364 C455.04,121.6 450.909091,122.88 445.730909,122.88 C440.727273,122.88 436.363636,121.192727 433.629091,118.458182 C428.858182,113.570909 428.16,105.658182 428.16,97.4545455 C428.16,89.3672727 428.858182,81.3963636 433.629091,76.5090909 C436.363636,73.7745455 440.669091,72.0872727 445.672727,72.0872727 C450.967273,72.0872727 455.04,73.3672727 458.647273,77.6727273 L458.647273,59.0545455 C458.647273,56.6690909 458.821818,55.7963636 459.403636,54.6327273 C460.101818,53.2945455 461.498182,52.3054545 463.650909,52.3054545 C465.803636,52.3054545 467.2,53.3527273 467.898182,54.6327273 C468.48,55.7963636 468.654545,56.6690909 468.654545,59.0545455 L468.654545,115.898182 L468.654545,115.898182 Z M448.407273,81.2218182 C439.389091,81.2218182 438.167273,88.7854545 438.167273,97.5709091 C438.167273,106.356364 439.447273,113.92 448.407273,113.92 C457.425455,113.92 458.705455,106.356364 458.705455,97.5709091 C458.763636,88.7854545 457.483636,81.2218182 448.407273,81.2218182 Z" fill="#FF351A"></path>
    </g>
</svg>

<svg width="512" height="187" xmlns="http://www.w3.org/2000/svg" preserveAspectRatio="xMidYMid"><path d="M477.09 0H34.91C15.65 0 0 15.65 0 34.91V128c0 16.29 11.113 29.905 26.182 33.804.523.116 1.687.407 1.803.407C101.527 177.92 177.804 186.18 256 186.18s154.473-8.261 228.015-23.97c.116 0 1.28-.291 1.803-.407C500.888 157.905 512 144.233 512 128V34.91C512 15.65 496.35 0 477.09 0zM93.034 122.007c-.873.524-1.92.757-2.851.757-2.618 0-3.84-1.862-5.237-4.306L70.458 93.033H57.251v22.516c0 2.618-.058 3.433-.756 4.771-.757 1.396-2.386 2.385-4.48 2.385-2.095 0-3.724-.989-4.48-2.385-.757-1.396-.757-2.21-.757-4.77V59.17c0-1.57 0-3.432 1.513-4.945 1.513-1.512 3.374-1.512 4.945-1.512h20.539c13.207 0 21.585 8.494 21.585 20.305 0 9.95-5.993 16.291-13.79 18.502l12.452 21.76c1.222 2.153 1.629 3.025 1.687 4.364-.058 1.745-.873 3.316-2.676 4.363zm-8.32-48.814c0-6.866-4.771-11.055-11.811-11.055H57.25v21.877H72.9c7.04 0 11.812-4.015 11.812-10.822zM141.09 99.2c-1.28 1.28-2.91 1.28-4.422 1.28h-26.356c0 8.436 4.422 13.964 12.683 13.964 3.491 0 6.866-.99 9.542-3.142 1.513-1.222 2.793-1.804 4.073-1.804 1.978 0 4.13 1.978 4.13 4.247 0 2.27-2.56 4.422-5.003 5.993-3.142 2.037-7.622 3.2-12.974 3.2-12.393 0-22.342-6.516-22.342-25.367 0-16.35 8.378-25.367 21.003-25.367 12.975 0 20.655 9.425 20.946 22.516.116 1.455-.058 3.258-1.28 4.48zm-19.607-18.676c-4.771 0-8.204 2.56-9.891 6.283-.99 2.153-1.164 3.724-1.28 6.75h22.283c-.174-3.026-.407-4.597-1.396-6.75-1.63-3.723-5.004-6.283-9.716-6.283zm68.421 35.374c0 2.735-.174 3.607-.872 4.713-.815 1.338-2.444 2.094-4.131 2.094-1.63 0-3.142-.64-4.073-1.978-.524-.756-.756-1.454-.873-3.49-3.665 4.363-7.796 5.643-12.974 5.643-5.004 0-9.367-1.687-12.102-4.422-4.77-4.887-5.47-12.8-5.47-21.003 0-8.088.7-16.059 5.47-20.946 2.735-2.734 7.04-4.422 12.044-4.422 5.294 0 9.367 1.28 12.974 5.586V59.055c0-2.386.175-3.259.757-4.422.698-1.338 2.094-2.328 4.247-2.328s3.549 1.048 4.247 2.328c.582 1.163.756 2.036.756 4.422v56.843zm-20.247-34.676c-9.018 0-10.24 7.563-10.24 16.349 0 8.785 1.28 16.349 10.24 16.349 9.018 0 10.298-7.564 10.298-16.35 0-8.785-1.221-16.348-10.298-16.348zm48.233 41.716c-7.738 0-12.8-1.454-17.28-4.48-1.571-1.047-2.735-2.443-2.735-4.13 0-1.28.582-2.619 1.63-3.433.756-.699 1.687-1.048 2.734-1.048s2.21.466 3.724 1.397c3.49 2.269 6.923 3.316 11.985 3.316 6.342 0 10.88-2.27 10.88-6.982 0-3.316-1.92-5.41-6.69-5.876l-7.972-.757c-9.25-.814-14.662-5.003-14.662-13.614 0-9.716 8.379-15.186 18.735-15.186 5.353 0 9.484.931 13.324 2.735 1.687.756 2.618 1.396 3.2 2.095.756.872.93 1.629.93 2.734 0 .99-.523 2.211-1.221 2.91-.815.814-1.746 1.28-2.91 1.28-.93 0-1.92-.408-3.2-1.048-3.141-1.513-6.516-2.618-10.298-2.618-5.934 0-8.901 2.734-8.901 6.516 0 3.666 2.269 5.295 6.865 5.644l7.796.756c9.251.873 14.72 5.12 14.72 13.964 0 10.472-8.785 15.825-20.654 15.825zm64.058-4.422c-2.734 2.735-7.04 4.422-12.044 4.422-5.294 0-9.367-1.338-12.974-5.643v18.618c0 2.385-.175 3.258-.756 4.422-.699 1.338-2.095 2.327-4.248 2.327-2.152 0-3.549-1.047-4.247-2.327-.582-1.164-.756-2.037-.756-4.422V79.185c0-2.734.174-3.607.872-4.712.815-1.338 2.444-2.095 4.131-2.095 1.63 0 3.142.64 4.073 1.978.524.757.756 1.513.873 3.491 3.665-4.363 7.738-5.643 12.974-5.643 5.004 0 9.368 1.687 12.102 4.421 4.771 4.888 5.47 12.8 5.47 21.004 0 8.03-.699 16-5.47 20.887zM267.17 81.164c-9.018 0-10.298 7.563-10.298 16.349 0 8.785 1.28 16.407 10.298 16.407s10.24-7.622 10.24-16.407c0-8.786-1.28-16.35-10.24-16.35zm59.287 2.792c-1.047 0-2.153-.349-3.84-1.338-1.687-.93-3.433-1.454-5.353-1.454-5.643 0-10.123 4.189-10.123 11.112v23.68c0 2.386-.175 3.259-.757 4.422-.698 1.338-2.094 2.327-4.247 2.327s-3.549-1.047-4.247-2.327c-.582-1.163-.756-2.036-.756-4.422V79.244c0-2.735.174-3.608.872-4.713.815-1.338 2.444-2.095 4.131-2.095 1.63 0 3.142.64 4.073 1.979.524.756.756 1.512.873 3.607 2.792-3.491 7.447-5.76 12.625-5.76 3.666 0 6.284.698 8.727 2.269 1.688 1.105 2.968 2.618 2.968 4.48 0 1.396-.582 2.734-1.455 3.607-.93.815-2.21 1.338-3.49 1.338zM371.84 99.2c-1.28 1.28-2.91 1.28-4.422 1.28h-26.356c0 8.436 4.422 13.964 12.683 13.964 3.491 0 6.866-.99 9.542-3.142 1.513-1.222 2.793-1.804 4.073-1.804 1.978 0 4.13 1.978 4.13 4.247 0 2.27-2.56 4.422-5.003 5.993-3.142 2.037-7.622 3.2-12.974 3.2-12.393 0-22.342-6.516-22.342-25.367 0-16.35 8.378-25.367 21.004-25.367 12.974 0 20.654 9.425 20.945 22.516.175 1.455-.058 3.258-1.28 4.48zm-19.607-18.676c-4.771 0-8.204 2.56-9.891 6.283-.99 2.153-1.164 3.724-1.28 6.75h22.283c-.174-3.026-.407-4.597-1.396-6.75-1.57-3.723-5.004-6.283-9.716-6.283zm66.734 35.432c0 2.444-.116 3.375-.756 4.48-.756 1.397-2.327 2.27-4.247 2.27-1.63 0-2.851-.582-3.608-1.397-.581-.698-1.047-1.454-1.105-3.549-3.898 3.84-7.215 5.12-13.266 5.12-6.225 0-10.356-1.396-13.323-4.48-2.56-2.618-3.957-6.4-3.957-10.59 0-8.32 5.935-14.37 17.164-14.37h13.15v-3.084c0-6.516-3.084-9.658-10.357-9.658-3.957 0-6.575 1.106-9.484 3.317-1.28.989-2.676 1.338-3.607 1.338a3.907 3.907 0 01-2.91-1.338c-.814-.931-1.163-1.746-1.163-3.084 0-2.27 2.095-4.247 4.655-5.702 3.49-1.978 7.505-2.967 12.625-2.967 13.266 0 20.306 5.818 20.306 17.047v26.647h-.117zm-30.603-8.32c0 4.48 3.025 6.982 9.309 6.982 3.549 0 6.516-.407 9.018-2.85 1.57-1.455 2.21-3.724 2.21-7.39v-3.898H397.15c-5.818 0-8.785 2.56-8.785 7.156zm80.29 8.262c0 2.735-.174 3.607-.872 4.713-.815 1.338-2.444 2.094-4.131 2.094-1.63 0-3.142-.64-4.073-1.978-.523-.756-.756-1.454-.873-3.49-3.665 4.363-7.796 5.643-12.974 5.643-5.004 0-9.367-1.687-12.102-4.422-4.77-4.887-5.469-12.8-5.469-21.003 0-8.088.698-16.059 5.47-20.946 2.734-2.734 7.04-4.422 12.043-4.422 5.294 0 9.367 1.28 12.974 5.586V59.055c0-2.386.175-3.259.757-4.422.698-1.338 2.094-2.328 4.247-2.328s3.549 1.048 4.247 2.328c.582 1.163.757 2.036.757 4.422v56.843zm-20.247-34.676c-9.018 0-10.24 7.563-10.24 16.349 0 8.785 1.28 16.349 10.24 16.349 9.018 0 10.298-7.564 10.298-16.35.059-8.785-1.221-16.348-10.298-16.348z" fill="#FF351A"/></svg>
